icons/apps.svg

<?xml version="1.0" encoding="UTF-8" standalone="no"?>
<svg width="1024px" height="1024px" viewBox="0 0 1024 1024" version="1.1" xmlns="http://www.w3.org/2000/svg" xmlns:xlink="http://www.w3.org/1999/xlink" xmlns:sketch="http://www.bohemiancoding.com/sketch/ns">
    <!-- Generator: Sketch 3.5.1 (25234) - http://www.bohemiancoding.com/sketch -->
    <title>apps</title>
    <desc>Created with Sketch.</desc>
    <defs></defs>
            <path d="M218,248.00818 L218,248.00818 L218,775.99182 C218,792.568858 231.431817,806 248.00818,806 L775.99182,806 C792.568858,806 806,792.568183 806,775.99182 L806,248.00818 C806,231.431142 792.568183,218 775.99182,218 L248.00818,218 C231.431142,218 218,231.431817 218,248.00818 L218,248.00818 Z M148,248.00818 C148,192.775187 192.767906,148 248.00818,148 L775.99182,148 C831.224813,148 876,192.767906 876,248.00818 L876,775.99182 C876,831.224813 831.232094,876 775.99182,876 L248.00818,876 C192.775187,876 148,831.232094 148,775.99182 L148,248.00818 L148,248.00818 Z" id="Shape"></path>
            <rect id="Rectangle-50" x="278.160296" y="278.262639" width="207.5" height="207.5"></rect>
            <rect id="Rectangle-50-Copy-2" x="278.160296" y="538.992602" width="207.5" height="207.5"></rect>
            <rect id="Rectangle-50-Copy" x="539.094945" y="278.262639" width="207.5" height="207.5"></rect>
</svg>

<svg xmlns="http://www.w3.org/2000/svg" viewBox="0 0 1024 1024">
    <path d="M218 248v528c0 16.6 13.4 30 30 30h528c16.6 0 30-13.4 30-30V248c0-16.6-13.4-30-30-30H248c-16.6 0-30 13.4-30 30zm-70 0c0-55.2 44.8-100 100-100h528c55.2 0 100 44.8 100 100v528c0 55.2-44.8 100-100 100H248c-55.2 0-100-44.8-100-100V248z"/>
    <path d="M278.2 278.3h207.5v207.5H278.2zm0 260.7h207.5v207.5H278.2zM539 278.3h207.6v207.5H539z"/>
</svg>
